icons/nestjsfilter.svg

<svg width="16" height="16" viewBox="0 0 16 16" fill="none" xmlns="http://www.w3.org/2000/svg">
<path fill-rule="evenodd" clip-rule="evenodd" d="M9.06574 2C8.97897 2 8.89839 2.01867 8.82401 2.04356C8.98206 2.14934 9.06884 2.28934 9.11222 2.44802C9.11533 2.46979 9.12152 2.48535 9.12462 2.50713C9.12773 2.5258 9.13082 2.54446 9.13082 2.56313C9.14322 2.83692 9.05954 2.87114 9.00066 3.03292C8.91079 3.24138 8.93558 3.46538 9.04404 3.64584C9.05334 3.66761 9.06574 3.6925 9.08123 3.71428C8.96347 2.92714 9.61736 2.80892 9.73822 2.56313C9.74752 2.34846 9.57088 2.20534 9.43142 2.10578C9.29817 2.02489 9.1773 2 9.06574 2V2ZM10.0512 2.17734C10.0388 2.2489 10.0481 2.23023 10.045 2.26757C10.0419 2.29245 10.0419 2.32357 10.0388 2.34846C10.0326 2.37335 10.0264 2.39824 10.0171 2.42313C10.011 2.44802 10.0017 2.47291 9.99235 2.49779C9.97995 2.52269 9.97066 2.54446 9.95827 2.56935C9.94897 2.5818 9.94277 2.59424 9.93347 2.60669C9.92728 2.61602 9.92107 2.62536 9.91488 2.63469C9.89938 2.65647 9.88389 2.67825 9.86839 2.69691C9.8498 2.71558 9.8343 2.73736 9.81261 2.75292C9.81261 2.75603 9.81261 2.75603 9.81261 2.75603C9.79402 2.77159 9.77542 2.79025 9.75373 2.80581C9.68865 2.85559 9.61427 2.89292 9.54609 2.93959C9.5244 2.95515 9.50271 2.96759 9.48412 2.98626C9.46242 3.00182 9.44383 3.01737 9.42523 3.03604C9.40354 3.05471 9.38805 3.07338 9.36945 3.09515C9.35396 3.11382 9.33536 3.1356 9.32297 3.15738C9.30747 3.17916 9.29198 3.20094 9.27958 3.22271C9.26718 3.2476 9.25789 3.26938 9.24549 3.29427C9.23619 3.31916 9.2269 3.34094 9.2207 3.36583C9.2114 3.39383 9.2052 3.41872 9.19901 3.44361C9.1959 3.45606 9.1959 3.47161 9.19281 3.48406C9.1897 3.49651 9.1897 3.50895 9.18662 3.52139C9.18662 3.54628 9.18352 3.57428 9.18352 3.59917C9.18352 3.61784 9.18352 3.63651 9.18662 3.65517C9.18662 3.68006 9.18972 3.70495 9.19592 3.73295C9.19902 3.75784 9.20521 3.78273 9.21141 3.80762C9.22071 3.83251 9.22691 3.8574 9.2362 3.88229C9.2424 3.89785 9.2517 3.9134 9.2579 3.92585L8.54512 3.64895C8.42426 3.61473 8.3065 3.58362 8.18564 3.55561C8.12056 3.54006 8.05548 3.5245 7.9904 3.50895C7.80446 3.47161 7.61542 3.44361 7.42638 3.42494C7.42018 3.42494 7.41708 3.42183 7.41088 3.42183C7.22494 3.40316 7.0421 3.39383 6.85616 3.39383C6.7198 3.39383 6.58344 3.40004 6.45019 3.40938C6.26115 3.42183 6.0721 3.44672 5.88307 3.47783C5.83658 3.48405 5.79009 3.49339 5.74361 3.50272C5.64754 3.52139 5.55457 3.54317 5.4647 3.56494C5.41821 3.57739 5.37173 3.58983 5.32524 3.60228C5.27876 3.62095 5.23537 3.64272 5.19198 3.66139C5.15789 3.67695 5.12381 3.6925 5.08972 3.70806C5.08352 3.71118 5.07732 3.71118 5.07422 3.71428C5.04323 3.72983 5.01534 3.74228 4.98745 3.75784C4.97815 3.76095 4.97195 3.76405 4.96576 3.76717C4.93167 3.78272 4.89758 3.80139 4.86969 3.81695C4.84799 3.82628 4.8263 3.83873 4.80771 3.84806C4.79841 3.85428 4.78601 3.86051 4.77981 3.86362C4.75192 3.87917 4.72403 3.89473 4.69924 3.91029C4.67135 3.92584 4.64656 3.9414 4.62486 3.95695C4.60317 3.97251 4.58148 3.98495 4.56288 4.00051C4.55978 4.00362 4.55669 4.00362 4.55359 4.00673C4.53499 4.01918 4.5133 4.03473 4.49471 4.05029C4.49471 4.05029 4.4916 4.0534 4.48851 4.0565C4.47302 4.06895 4.45752 4.08139 4.44203 4.09384C4.43583 4.09695 4.42963 4.10317 4.42343 4.10629C4.40794 4.11874 4.39244 4.13429 4.37695 4.14673C4.37384 4.15295 4.36765 4.15607 4.36455 4.15918C4.34595 4.17785 4.32736 4.19341 4.30876 4.21207C4.30566 4.21207 4.30566 4.21519 4.30257 4.21829C4.28398 4.23385 4.26538 4.25251 4.24679 4.27118C4.24368 4.2743 4.24368 4.2774 4.24059 4.2774C4.2251 4.29295 4.20961 4.30851 4.19411 4.32718C4.18792 4.3334 4.17861 4.33963 4.17242 4.34584C4.15692 4.36451 4.13833 4.38318 4.11973 4.40185C4.11663 4.40807 4.11044 4.41118 4.10733 4.4174C4.08254 4.44229 4.06085 4.46718 4.03606 4.49207C4.03295 4.49519 4.02986 4.49829 4.02676 4.50141C3.97717 4.5543 3.92449 4.60719 3.86871 4.65386C3.81293 4.70364 3.75404 4.7503 3.69516 4.79075C3.63318 4.83431 3.5743 4.87164 3.50922 4.90898C3.44724 4.9432 3.38216 4.97431 3.31398 5.00231C3.2489 5.03031 3.18073 5.0552 3.11255 5.07698C2.98239 5.10498 2.84913 5.15787 2.73447 5.16721C2.70967 5.16721 2.68178 5.17343 2.65699 5.17654C2.6291 5.18276 2.60431 5.18899 2.57952 5.19521C2.55472 5.20454 2.52993 5.21388 2.50514 5.22321C2.48035 5.23254 2.45556 5.24499 2.43076 5.25743C2.40907 5.27299 2.38428 5.28543 2.36258 5.30099C2.34089 5.31655 2.3192 5.33521 2.3006 5.35388C2.27891 5.36944 2.25722 5.39122 2.23862 5.40988C2.22003 5.43166 2.20144 5.45033 2.18594 5.47211C2.17045 5.497 2.15185 5.51878 2.13946 5.54367C2.12396 5.56544 2.10847 5.59033 2.09607 5.61522C2.08367 5.64322 2.07128 5.66811 2.06198 5.69611C2.05268 5.721 2.04339 5.74901 2.03409 5.77701C2.0279 5.8019 2.02169 5.82679 2.01859 5.85167C2.01859 5.85479 2.01549 5.85789 2.01549 5.86101C2.0093 5.88901 2.0093 5.92635 2.00619 5.94501C2.00309 5.96679 2 5.98546 2 6.00724C2 6.01969 2 6.03524 2.0031 6.04768C2.00621 6.06946 2.0093 6.08813 2.0155 6.1068C2.0217 6.12546 2.02791 6.14413 2.0372 6.1628C2.0372 6.16591 2.0372 6.16591 2.0372 6.16591C2.04649 6.18458 2.05889 6.20325 2.07129 6.22192C2.08369 6.24058 2.09608 6.25925 2.11157 6.27792C2.12707 6.29348 2.14566 6.31214 2.16426 6.3277C2.18285 6.34637 2.20145 6.36192 2.22314 6.37748C2.29752 6.44281 2.31611 6.46459 2.41218 6.51437C2.42767 6.52371 2.44317 6.52993 2.46176 6.53926C2.46487 6.53926 2.46796 6.54238 2.47106 6.54238C2.47106 6.54859 2.47106 6.55171 2.47417 6.55793C2.47727 6.58282 2.48346 6.60771 2.48966 6.6326C2.49585 6.6606 2.50516 6.68549 2.51445 6.70727C2.52375 6.72594 2.52995 6.74461 2.53925 6.76327C2.54235 6.76949 2.54544 6.77572 2.54854 6.77883C2.56094 6.80372 2.57333 6.8255 2.58573 6.84728C2.60123 6.86906 2.61672 6.89083 2.63221 6.91261C2.64771 6.93128 2.6663 6.95306 2.6849 6.97173C2.70349 6.99039 2.72209 7.00595 2.74378 7.02462C2.74378 7.02462 2.74688 7.02774 2.74997 7.02774C2.76857 7.04329 2.78716 7.05885 2.80576 7.07129C2.82745 7.08685 2.84914 7.09929 2.87393 7.11174C2.89563 7.12419 2.92042 7.13663 2.94521 7.14596C2.96381 7.1553 2.9855 7.16152 3.00719 7.16774C3.0103 7.17086 3.01339 7.17086 3.01959 7.17396C3.03199 7.17708 3.04748 7.18018 3.05988 7.18329C3.05058 7.3513 3.04748 7.50997 3.07228 7.56597C3.10017 7.6282 3.23653 7.43841 3.37289 7.22063C3.35429 7.4353 3.34189 7.68731 3.37289 7.76198C3.40697 7.83976 3.59292 7.59708 3.75406 7.32952C5.95127 6.81928 7.95633 8.34378 8.16707 10.4967C8.12678 10.1607 7.71461 9.97406 7.52557 10.0207C7.4326 10.251 7.27455 10.5465 7.02043 10.7301C7.04212 10.5247 7.03283 10.3132 6.98944 10.1078C6.92126 10.3941 6.788 10.6616 6.60516 10.8919C6.31075 10.9136 6.01635 10.7705 5.8614 10.5559C5.84899 10.5465 5.8459 10.5279 5.8366 10.5154C5.82731 10.4936 5.81801 10.4719 5.81181 10.4501C5.80251 10.4283 5.79632 10.4065 5.79322 10.3847C5.79011 10.363 5.79011 10.3412 5.79011 10.3163C5.79011 10.3007 5.79011 10.2852 5.79011 10.2696C5.79322 10.2478 5.79941 10.2261 5.80561 10.2043C5.8118 10.1825 5.81801 10.1607 5.8273 10.1389C5.8397 10.1172 5.84899 10.0954 5.86449 10.0736C5.91717 9.92428 5.91717 9.80294 5.8211 9.73138C5.80251 9.71893 5.78392 9.7096 5.76222 9.70027C5.74982 9.69715 5.73433 9.69093 5.72194 9.68782C5.71264 9.6847 5.70644 9.6816 5.69714 9.67848C5.67545 9.67227 5.65376 9.66603 5.63206 9.66293C5.61037 9.65671 5.58868 9.65359 5.56698 9.65359C5.54529 9.65048 5.5205 9.64738 5.49881 9.64738C5.48331 9.64738 5.46782 9.65049 5.45232 9.65049C5.42753 9.65049 5.40583 9.65361 5.38414 9.65983C5.36245 9.66295 5.34076 9.66604 5.31906 9.67227C5.29737 9.67849 5.27568 9.68472 5.25398 9.69405C5.23229 9.70339 5.2137 9.71272 5.192 9.72206C5.17341 9.73139 5.15482 9.74383 5.13312 9.75317C4.41105 10.2261 4.84181 11.3337 5.33456 11.6541C5.14862 11.6883 4.95958 11.7288 4.90689 11.7692C4.90379 11.7724 4.9007 11.7755 4.9007 11.7755C5.03396 11.8563 5.17341 11.9248 5.31907 11.9839C5.5174 12.0492 5.72814 12.1084 5.82111 12.1332V12.1364C6.07833 12.1893 6.33865 12.2079 6.60206 12.1924C7.97493 12.0959 9.09987 11.0474 9.30441 9.66605C9.3106 9.69405 9.31681 9.71894 9.323 9.74694C9.3323 9.80294 9.34469 9.86206 9.35089 9.92117C9.35089 9.92117 9.35089 9.92117 9.35089 9.92429C9.35708 9.95229 9.36019 9.98029 9.36329 10.0052C9.36329 10.0114 9.36329 10.0145 9.36329 10.0176C9.3664 10.0456 9.36948 10.0736 9.36948 10.0985C9.37259 10.1327 9.37568 10.167 9.37568 10.2012C9.37568 10.2168 9.37568 10.2323 9.37568 10.251C9.37568 10.2665 9.37878 10.2852 9.37878 10.3008C9.37878 10.3194 9.37568 10.3381 9.37568 10.3568C9.37568 10.3723 9.37568 10.3879 9.37568 10.4003C9.37568 10.4221 9.37257 10.4408 9.37257 10.4625C9.37257 10.475 9.37257 10.4874 9.36947 10.503C9.36947 10.5248 9.36637 10.5465 9.36637 10.5714C9.36326 10.5808 9.36326 10.5901 9.36326 10.5994C9.36015 10.6243 9.35706 10.6461 9.35396 10.671C9.35396 10.6803 9.35396 10.6897 9.35086 10.699C9.34775 10.7301 9.34156 10.7581 9.33846 10.7892V10.7923V10.7955C9.33226 10.8235 9.32606 10.8546 9.31986 10.8826C9.31986 10.8857 9.31986 10.8888 9.31986 10.8919C9.31367 10.9199 9.30746 10.9479 9.30127 10.9759C9.30127 10.979 9.29817 10.9852 9.29817 10.9883C9.29197 11.0164 9.28576 11.0444 9.27647 11.0724C9.27647 11.0755 9.27647 11.0786 9.27647 11.0817C9.26718 11.1128 9.25788 11.1408 9.25168 11.1688C9.24858 11.1719 9.24858 11.175 9.24858 11.175C9.23928 11.2061 9.22998 11.2372 9.22069 11.2684C9.20829 11.2995 9.19899 11.3275 9.1866 11.3586C9.1742 11.3897 9.1649 11.4208 9.15251 11.4488C9.14011 11.4799 9.12772 11.5079 9.11532 11.539H9.11221C9.09981 11.567 9.08742 11.5981 9.07192 11.6261C9.06882 11.6355 9.06573 11.6417 9.06263 11.6479C9.05952 11.651 9.05952 11.6541 9.05643 11.6573C8.855 12.0648 8.55749 12.4226 8.18561 12.7026C8.16082 12.7182 8.13603 12.7369 8.11123 12.7555C8.10504 12.7617 8.09574 12.7649 8.08954 12.7711C8.06785 12.7866 8.04615 12.8022 8.02136 12.8177L8.03066 12.8364H8.03376C8.07715 12.8302 8.12053 12.824 8.16392 12.8177H8.16702C8.2476 12.8053 8.32817 12.7897 8.40875 12.7742C8.43044 12.7711 8.45523 12.7649 8.47693 12.7586C8.49242 12.7555 8.50482 12.7524 8.52031 12.7493C8.54201 12.7462 8.5637 12.74 8.58539 12.7368C8.60399 12.7306 8.62258 12.7275 8.64118 12.7213C8.95108 12.6466 9.25168 12.5439 9.53989 12.4226C9.04715 13.0977 8.38705 13.6422 7.6154 14C7.97179 13.9751 8.32817 13.916 8.67216 13.8164C9.92107 13.4462 10.9716 12.6031 11.6007 11.4675C11.4737 12.1862 11.1886 12.8706 10.7671 13.468C11.0677 13.2689 11.3435 13.0386 11.5945 12.7773C12.2887 12.0493 12.7443 11.1252 12.8992 10.1328C13.0046 10.6243 13.0356 11.1315 12.9891 11.6324C15.2266 8.49936 13.175 5.25125 12.3166 4.39567C12.3135 4.38945 12.3104 4.38633 12.3104 4.38011C12.3073 4.38323 12.3073 4.38323 12.3073 4.38633C12.3073 4.38321 12.3073 4.38321 12.3042 4.38011C12.3042 4.41745 12.3011 4.45478 12.298 4.49211C12.2887 4.56367 12.2794 4.63212 12.267 4.70057C12.2515 4.76901 12.2329 4.83746 12.2143 4.90591C12.1926 4.97124 12.1679 5.03969 12.14 5.10502C12.1121 5.16725 12.0811 5.23258 12.047 5.29481C12.0129 5.35392 11.9757 5.41615 11.9354 5.47215C11.8951 5.53126 11.8518 5.58726 11.8084 5.64015C11.7619 5.69616 11.7123 5.74594 11.6627 5.79571C11.6317 5.82372 11.6038 5.84861 11.5728 5.87349C11.5481 5.89527 11.5264 5.91394 11.5016 5.93572C11.4458 5.97928 11.39 6.01972 11.328 6.05706C11.2691 6.09439 11.2072 6.13173 11.1452 6.16284C11.0801 6.19395 11.015 6.22195 10.9499 6.24995C10.8849 6.27484 10.8167 6.29662 10.7485 6.31529C10.6803 6.33395 10.609 6.34951 10.5409 6.36196C10.4696 6.37441 10.3983 6.38062 10.3301 6.38685C10.2806 6.38996 10.231 6.39306 10.1814 6.39306C10.1101 6.39306 10.0388 6.38685 9.97065 6.38061C9.89937 6.3744 9.8281 6.36506 9.75992 6.3495C9.68864 6.33705 9.62046 6.31839 9.55228 6.29661H9.54918C9.61736 6.29039 9.68554 6.28416 9.75372 6.27172C9.82499 6.25927 9.89317 6.24372 9.96135 6.22505C10.0295 6.20639 10.0977 6.18461 10.1628 6.15972C10.231 6.13483 10.296 6.10372 10.358 6.0726C10.4231 6.04149 10.482 6.00727 10.544 5.96993C10.6028 5.92949 10.6617 5.88904 10.7175 5.84548C10.7733 5.80193 10.826 5.75526 10.8756 5.70548C10.9282 5.65881 10.9747 5.60592 11.0212 5.55303C11.0677 5.49703 11.1111 5.44103 11.1514 5.38502C11.1576 5.37569 11.1638 5.36325 11.17 5.35391C11.201 5.30413 11.2319 5.25435 11.2598 5.20457C11.2939 5.14235 11.3249 5.08012 11.3528 5.01479C11.3807 4.94945 11.4055 4.88412 11.4272 4.81567C11.4489 4.75033 11.4644 4.68189 11.4799 4.61344C11.4923 4.54188 11.5047 4.47344 11.5109 4.40499C11.5171 4.33343 11.5233 4.26187 11.5233 4.19343C11.5233 4.14365 11.5202 4.09387 11.5171 4.04409C11.5109 3.97253 11.5016 3.90408 11.4923 3.83564C11.4799 3.76408 11.4644 3.69563 11.4458 3.62718C11.4241 3.56185 11.4024 3.4934 11.3776 3.42807C11.3528 3.36273 11.3218 3.2974 11.2908 3.23517C11.2567 3.17295 11.2227 3.11072 11.1855 3.05161C11.1452 2.9925 11.1049 2.93649 11.0615 2.88049C11.015 2.8276 10.9685 2.77471 10.919 2.72182C10.8942 2.69693 10.8663 2.66893 10.8384 2.64404C10.6989 2.53515 10.5533 2.43248 10.4076 2.33914C10.3859 2.32669 10.3673 2.31736 10.3456 2.30803C10.2434 2.24269 10.1473 2.20847 10.0512 2.17736L10.0512 2.17734Z" fill="#5F7FDA"/>
</svg>

<svg xmlns="http://www.w3.org/2000/svg" width="16" height="16" fill="none"><path fill="#5F7FDA" fill-rule="evenodd" d="M9.066 2a.758.758 0 0 0-.242.044.685.685 0 0 1 .288.404c.003.022.01.037.013.06a.343.343 0 0 1 .006.055c.012.274-.071.308-.13.47a.667.667 0 0 0 .043.613c.01.022.022.046.037.068-.118-.787.536-.905.657-1.15.01-.216-.167-.359-.307-.458A.683.683 0 0 0 9.066 2Zm.985.177c-.012.072-.003.053-.006.09-.003.025-.003.057-.006.081-.006.025-.013.05-.022.075a.668.668 0 0 1-.025.075l-.034.071c-.009.013-.015.025-.025.038l-.018.028c-.016.021-.031.043-.047.062-.018.019-.034.04-.055.056v.003c-.019.016-.038.034-.06.05-.064.05-.139.087-.207.134-.022.015-.043.028-.062.046a.454.454 0 0 0-.059.05c-.021.019-.037.037-.056.06-.015.018-.034.04-.046.061a.796.796 0 0 0-.043.066l-.035.071c-.009.025-.018.047-.024.072-.01.028-.016.053-.022.078-.003.012-.003.028-.006.04-.003.013-.003.025-.006.037l-.003.078c0 .019 0 .038.003.056 0 .025.003.05.009.078a.64.64 0 0 0 .015.075c.01.025.016.05.025.074.006.016.016.031.022.044l-.713-.277a7.65 7.65 0 0 0-.36-.093l-.195-.047a5.732 5.732 0 0 0-.564-.084c-.006 0-.009-.003-.015-.003a5.518 5.518 0 0 0-1.528.056 6.22 6.22 0 0 0-.418.087l-.14.037c-.046.019-.09.04-.133.06l-.102.046c-.006.003-.013.003-.016.006-.03.016-.059.028-.087.044a1.362 1.362 0 0 0-.118.06c-.021.008-.043.02-.061.03a1.849 1.849 0 0 0-.183.109c-.022.016-.044.028-.062.044-.003.003-.006.003-.01.006a.714.714 0 0 0-.058.043l-.006.006-.047.038c-.006.003-.012.01-.019.012-.015.013-.03.028-.046.04-.003.007-.01.01-.012.013-.02.019-.038.034-.056.053-.003 0-.003.003-.006.006a.873.873 0 0 0-.056.053c-.003.003-.003.006-.006.006a.729.729 0 0 0-.047.05l-.022.019a.873.873 0 0 1-.052.056c-.003.006-.01.01-.013.015l-.07.075a2.343 2.343 0 0 1-.527.417 2.228 2.228 0 0 1-.397.168c-.13.028-.264.08-.379.09-.024 0-.052.006-.077.01l-.077.018-.075.028c-.025.01-.05.022-.074.034-.022.016-.047.028-.068.044a.507.507 0 0 0-.062.053c-.022.015-.044.037-.062.056-.019.022-.038.04-.053.062-.016.025-.034.047-.047.072a.548.548 0 0 0-.043.071c-.012.028-.025.053-.034.081-.01.025-.019.053-.028.081-.006.025-.012.05-.015.075 0 .003-.004.006-.004.009-.006.028-.006.065-.009.084-.003.022-.006.04-.006.062a.332.332 0 0 0 .037.156v.003c.01.019.022.037.034.056.013.019.025.037.04.056a.823.823 0 0 0 .053.05.454.454 0 0 0 .06.05c.074.065.092.087.188.136.016.01.031.016.05.025.003 0 .006.003.01.003a.64.64 0 0 0 .043.165c.009.019.015.038.024.056.003.006.006.013.01.016.012.025.024.046.037.068l.046.066c.016.018.034.04.053.059.018.018.037.034.059.053 0 0 .003.003.006.003.019.015.037.03.056.043a.493.493 0 0 0 .068.04.503.503 0 0 0 .071.035c.019.01.04.016.062.022.003.003.006.003.013.006l.04.01c-.01.167-.013.326.012.382.028.062.165-.128.3-.345-.018.214-.03.466 0 .541.035.078.22-.165.382-.432 2.197-.51 4.202 1.014 4.413 3.167-.04-.336-.452-.523-.641-.476-.093.23-.251.525-.506.71a2.003 2.003 0 0 0-.03-.623 2.016 2.016 0 0 1-.385.784.865.865 0 0 1-.744-.336c-.012-.01-.015-.028-.024-.04-.01-.022-.019-.044-.025-.066a.26.26 0 0 1-.019-.065c-.003-.022-.003-.044-.003-.069v-.046c.003-.022.01-.044.016-.066a.538.538 0 0 1 .021-.065c.013-.022.022-.044.037-.065.053-.15.053-.271-.043-.343a.352.352 0 0 0-.059-.03l-.04-.013-.025-.01c-.022-.006-.043-.012-.065-.015a.235.235 0 0 0-.065-.01.505.505 0 0 0-.068-.006c-.016 0-.031.003-.047.003a.24.24 0 0 0-.068.01.533.533 0 0 0-.13.034l-.062.028c-.019.01-.037.022-.059.031-.722.473-.291 1.58.202 1.901-.186.034-.375.075-.428.115l-.006.006c.133.081.272.15.418.209.198.065.41.124.502.15v.002c.257.053.518.072.781.056a2.953 2.953 0 0 0 2.702-2.526l.019.08c.01.057.022.116.028.175v.003c.006.028.01.056.012.081v.013a.766.766 0 0 1 .006.08c.004.035.007.069.007.103v.05l.003.05c0 .018-.003.037-.003.056v.043c0 .022-.003.04-.003.063 0 .012 0 .024-.004.04 0 .022-.003.043-.003.068-.003.01-.003.02-.003.028l-.009.072c0 .01 0 .019-.003.028-.003.031-.01.06-.013.09v.007l-.018.087v.009l-.019.084-.003.012a.834.834 0 0 1-.022.084v.01c-.009.03-.018.059-.024.087-.003.003-.003.006-.003.006l-.028.093c-.013.031-.022.06-.034.09-.013.032-.022.063-.034.09l-.038.091h-.003c-.012.028-.025.06-.04.087a.148.148 0 0 1-.01.022c-.002.003-.002.006-.006.01a2.942 2.942 0 0 1-.87 1.045c-.025.015-.05.034-.075.053-.006.006-.015.009-.021.015l-.069.047.01.018h.003l.13-.018h.003c.08-.013.161-.028.242-.044a.524.524 0 0 0 .068-.015l.043-.01c.022-.003.044-.009.065-.012l.056-.016c.31-.074.61-.177.899-.298A4.968 4.968 0 0 1 7.615 14a5.079 5.079 0 0 0 1.057-.184 4.955 4.955 0 0 0 2.929-2.349 4.975 4.975 0 0 1-.834 2.001 4.883 4.883 0 0 0 2.132-3.335c.106.491.137.999.09 1.5 2.238-3.134.186-6.382-.672-7.237-.004-.007-.007-.01-.007-.016-.003.003-.003.003-.003.006 0-.003 0-.003-.003-.006 0 .037-.003.075-.006.112-.01.072-.019.14-.031.209a4.994 4.994 0 0 1-.053.205 2.593 2.593 0 0 1-.074.199 2.121 2.121 0 0 1-.205.367c-.04.06-.083.115-.127.168a2.32 2.32 0 0 1-.145.156 1.99 1.99 0 0 1-.09.077c-.025.022-.047.04-.071.063a1.73 1.73 0 0 1-.174.121c-.059.037-.12.075-.183.106l-.195.087a2.166 2.166 0 0 1-.41.112 2.374 2.374 0 0 1-.36.031 2.317 2.317 0 0 1-.628-.096H9.55a2.293 2.293 0 0 0 .412-.072 2.178 2.178 0 0 0 .583-.255c.059-.04.118-.081.173-.125.056-.043.109-.09.159-.14.052-.046.099-.1.145-.152a3.07 3.07 0 0 0 .13-.168l.019-.031c.031-.05.062-.1.09-.15a2.148 2.148 0 0 0 .22-.59c.012-.072.025-.14.03-.209.007-.072.013-.143.013-.212a2.405 2.405 0 0 0-.03-.357 2.261 2.261 0 0 0-.047-.209c-.022-.065-.044-.134-.068-.199a2.153 2.153 0 0 0-.087-.193c-.034-.062-.068-.124-.106-.183-.04-.06-.08-.116-.123-.172-.047-.052-.093-.105-.143-.158a1.943 1.943 0 0 0-.08-.078 5.708 5.708 0 0 0-.431-.305.576.576 0 0 0-.062-.031 1.203 1.203 0 0 0-.295-.13Z" clip-rule="evenodd"/></svg>
